src/assets/icons/files-folders-data,simple,folder.svg

<svg width="48" height="48" viewBox="0 0 48 48" fill="none" xmlns="http://www.w3.org/2000/svg">
<rect opacity="0.2" x="5" y="5" width="38" height="38" rx="4" fill="black"/>
<rect opacity="0.6" x="10" y="10" width="28" height="27" rx="4" fill="black"/>
<path d="M10 17.8665C10 16.128 10 15.2587 10.2656 14.5667C10.6719 13.5082 11.5082 12.6719 12.5667 12.2656C13.2587 12 14.128 12 15.8665 12C16.5365 12 16.8715 12 17.1934 12.0529C17.6844 12.1335 18.1561 12.305 18.5842 12.5586C18.8648 12.7249 19.1216 12.9402 19.6351 13.3706L21.0334 14.5427C22.1368 15.4676 22.6884 15.93 23.3508 16.1709C24.0131 16.4118 24.7329 16.4118 26.1726 16.4118H30C33.7712 16.4118 35.6569 16.4118 36.8284 17.5833C38 18.7549 38 20.6405 38 24.4118V29C38 32.7712 38 34.6569 36.8284 35.8284C35.6569 37 33.7712 37 30 37H18C14.2288 37 12.3431 37 11.1716 35.8284C10 34.6569 10 32.7712 10 29V17.8665Z" fill="black"/>
</svg>

<svg xmlns="http://www.w3.org/2000/svg" width="48" height="48" fill="none" viewBox="0 0 48 48">
  <rect width="38" height="38" x="5" y="5" fill="#000" opacity=".2" rx="4"/>
  <rect width="28" height="27" x="10" y="10" fill="#000" opacity=".6" rx="4"/>
  <path fill="#000" d="M10 17.866c0-1.738 0-2.607.266-3.3a4 4 0 012.3-2.3C13.26 12 14.129 12 15.867 12c.67 0 1.006 0 1.327.053a4 4 0 011.391.506c.28.166.538.381 1.051.812l1.398 1.172c1.104.925 1.655 1.387 2.318 1.628.662.24 1.382.24 2.822.24H30c3.771 0 5.657 0 6.828 1.172C38 18.755 38 20.641 38 24.412V29c0 3.771 0 5.657-1.172 6.828C35.657 37 33.771 37 30 37H18c-3.771 0-5.657 0-6.828-1.172C10 34.657 10 32.771 10 29V17.866z"/>
</svg>
